-- drums-02.tidal
$ stack [
  struct (sl 4 "t [t? t] t*2? [t? t]") $ s "sub" # n 3 # cut "-1",
  sl 4 $ s "kick" # n 43,
  struct (sl 2 $ "~ t") $ s "snap" # n 1,
  struct (sl 4 $ "t(<11 13 15>, 16, <0 1 0 2>)") $ s "top" # n (choose[0, 4]) # pan (sl 4 $ rand)
]
